X:6
T:Leigger-Polka (nach Tschopp) D&G (tinwhistle in D) solo
T:pk00675 (Hanny Christen)
%%MIDI program 72   % 111 /74 / 79=whistle
R:polka
M:2/4
L:1/16
K:D transpose=12
Aff2 Gee2 | FddF A2A2 | EccE G2G2 | FddF A2A2 | Aff2 Gee2 | FddF A2A2 | 
EccG A2c2 |1 d6z2 :|2 d6A2 |: d2A2 d2A2 | eee2 e2A2 | c2A2 c2A2 | \
ddd2 d2A2 |
d2A2 d2A2 | eee2 e2A2 | c2A2 c3A | d6"_>Teil A"z2 :| \
(3def [K:G] |: g2B2 d2G2 | "_c"c2cB A4 | f2A2 "_c"c2F2 |
G2BA G2(3def | g2B2 d2G2 | \
"_c"c2cBA4 | defe d"_c"cBA |1 G2Bd g2(3def :|2 G2Bd g2z2 |]
W:Parts: ABAC
W:
W:for tin whistle TABs go to: 
W:http://www.mandolintab.net/abcconverter.php
W:" Tablatur: Whistle - key: D "
W:a fingering chart (advanced) you can download from:
W:http://fullbodyburn.com/wp-content/uploads/2011/07/01-D1.jpg
% July 4, 2016

